packages/bezier-icons/icons/apps-filled.svg

<svg width="24" height="24" viewBox="0 0 24 24" fill="none" xmlns="http://www.w3.org/2000/svg">
<path fill-rule="evenodd" clip-rule="evenodd" d="M4.0002 3.00009H10.0002C10.5522 3.00009 11.0002 3.44709 11.0002 4.00009V10.0001C11.0002 10.5521 10.5522 11.0001 10.0002 11.0001H4.0002C3.4482 11.0001 3.0002 10.5521 3.0002 10.0001V4.00009C3.0002 3.44709 3.4482 3.00009 4.0002 3.00009ZM14.0002 3.00009H20.0002C20.5522 3.00009 21.0002 3.44709 21.0002 4.00009V10.0001C21.0002 10.5521 20.5522 11.0001 20.0002 11.0001H14.0002C13.4482 11.0001 13.0002 10.5521 13.0002 10.0001V4.00009C13.0002 3.44709 13.4482 3.00009 14.0002 3.00009ZM10.0002 13.0001H4.0002C3.4482 13.0001 3.0002 13.4471 3.0002 14.0001V20.0001C3.0002 20.5521 3.4482 21.0001 4.0002 21.0001H10.0002C10.5522 21.0001 11.0002 20.5521 11.0002 20.0001V14.0001C11.0002 13.4471 10.5522 13.0001 10.0002 13.0001ZM14.0002 13.0001H20.0002C20.5522 13.0001 21.0002 13.4471 21.0002 14.0001V20.0001C21.0002 20.5521 20.5522 21.0001 20.0002 21.0001H14.0002C13.4482 21.0001 13.0002 20.5521 13.0002 20.0001V14.0001C13.0002 13.4471 13.4482 13.0001 14.0002 13.0001Z" fill="#313234"/>
</svg>

<svg xmlns="http://www.w3.org/2000/svg" width="24" height="24" fill="none" viewBox="0 0 24 24"><path fill="#313234" fill-rule="evenodd" d="M4 3h6a1 1 0 0 1 1 1v6a1 1 0 0 1-1 1H4a1 1 0 0 1-1-1V4a1 1 0 0 1 1-1m10 0h6a1 1 0 0 1 1 1v6a1 1 0 0 1-1 1h-6a1 1 0 0 1-1-1V4a1 1 0 0 1 1-1m-4 10H4a1 1 0 0 0-1 1v6a1 1 0 0 0 1 1h6a1 1 0 0 0 1-1v-6a1 1 0 0 0-1-1m4 0h6a1 1 0 0 1 1 1v6a1 1 0 0 1-1 1h-6a1 1 0 0 1-1-1v-6a1 1 0 0 1 1-1" clip-rule="evenodd"/></svg>
